build/assets/images/svg/food/fish/svezhemorozhennaya_ryba.svg

<svg width="26" height="26" viewBox="0 0 26 26" fill="none" xmlns="http://www.w3.org/2000/svg">
<path d="M20.6436 3.3946C20.8419 3.19635 20.8419 2.8746 20.6436 2.67635C20.4454 2.4781 20.1236 2.4781 19.9254 2.67635C19.7271 2.8746 19.7271 3.19635 19.9254 3.3946C20.0196 3.48885 20.1496 3.5441 20.2861 3.5441C20.4194 3.5441 20.5494 3.4921 20.6436 3.3946Z" fill="#203686"/>
<path d="M16.3374 9.5631C16.5096 9.5631 16.6624 9.4591 16.7274 9.3031C16.7924 9.14385 16.7566 8.96185 16.6364 8.8416C14.8586 7.06385 15.8044 5.9686 15.9214 5.84835C16.0806 5.6826 16.0774 5.4161 15.9149 5.2536C15.7524 5.0911 15.4859 5.0911 15.3201 5.25035C15.3039 5.2666 13.6139 7.0151 16.0384 9.4396C16.1164 9.5176 16.2269 9.5631 16.3374 9.5631Z" fill="#203686"/>
<path d="M14.8424 10.6356C12.9151 8.70835 13.4839 6.83635 13.5099 6.75835C13.5586 6.61535 13.5229 6.4561 13.4254 6.34235C13.3246 6.2286 13.1719 6.17985 13.0224 6.2091C12.8729 6.23835 12.7526 6.34885 12.7071 6.49185C12.6746 6.58935 11.9336 8.9196 14.2444 11.2336C14.4101 11.3994 14.6766 11.3994 14.8424 11.2336C15.0049 11.0679 15.0049 10.8014 14.8424 10.6356Z" fill="#203686"/>
<path d="M22.3174 13.7394C25.8534 9.59235 25.7591 4.0251 25.5381 1.7631C25.4601 1.0546 24.8979 0.492353 24.1861 0.417603C22.2231 0.225853 17.7381 0.131603 13.8739 2.44235C12.3074 2.01985 9.18738 1.84435 5.23863 5.10085C5.04038 5.2666 4.91687 5.51035 4.90387 5.7671C4.89087 6.03035 4.99163 6.2871 5.17688 6.47235L8.32937 9.6281C7.90037 10.9801 7.61762 12.3711 7.48762 13.7849C6.27862 13.7069 5.08912 14.1261 4.19212 14.9451L0.600875 18.5331C0.435125 18.6989 0.435125 18.9654 0.600875 19.1311C0.701625 19.2319 2.85638 21.3509 5.29388 20.8991C4.84213 23.3366 6.96112 25.4946 7.06187 25.5921C7.22762 25.7579 7.49412 25.7579 7.65987 25.5921L11.2511 22.0009C12.2749 20.9771 12.4634 19.5699 12.4049 18.4421C12.6551 18.4129 12.8989 18.3836 13.1426 18.3479C12.6194 21.5524 14.5986 24.6301 17.7316 25.4881C20.8646 26.3461 24.1341 24.6984 25.3139 21.6759C26.4904 18.6599 25.2001 15.2311 22.3174 13.7394ZM24.1081 1.2626C24.4136 1.29835 24.6574 1.53885 24.6964 1.8476C24.9369 4.2721 24.6899 6.71935 23.9684 9.04635C22.2361 8.67585 20.6501 7.8146 19.3924 6.5666C18.1444 5.30885 17.2831 3.7196 16.9094 1.9906C19.2331 1.2691 21.6836 1.0221 24.1081 1.2626ZM5.77812 5.88085C5.75863 5.8646 5.75212 5.8386 5.75212 5.8126C5.75212 5.78985 5.76187 5.77035 5.77812 5.75735C8.84937 3.2256 11.3259 2.91685 12.8729 3.1086C12.5121 3.37185 12.1676 3.6546 11.8394 3.9536C10.4224 5.2861 9.33037 6.9241 8.64137 8.7441L5.77812 5.88085ZM10.6531 21.4061L7.38037 24.6789C6.80512 23.9736 5.60588 22.2154 6.28837 20.5026L6.94162 19.8494C7.05212 19.7421 7.09437 19.5861 7.05862 19.4366C7.01962 19.2871 6.90587 19.1734 6.75637 19.1344C6.60687 19.0954 6.45087 19.1409 6.34362 19.2514L5.69037 19.9046C3.97762 20.5871 2.21937 19.3879 1.51412 18.8126L4.79012 15.5431C5.50837 14.9029 6.45412 14.5746 7.41612 14.6331C7.36412 15.4326 7.34137 16.2614 7.36087 17.1259C7.39012 17.9254 8.03037 18.5656 8.82987 18.6014C9.05087 18.6046 9.26863 18.6079 9.48637 18.6079C10.2014 18.6079 10.8904 18.5819 11.5631 18.5299C11.6054 19.4626 11.4526 20.6066 10.6531 21.4061ZM8.84612 17.7499C8.49837 17.7304 8.22212 17.4541 8.20587 17.1064C8.09212 11.4839 9.50588 7.2686 12.4146 4.57435C13.4936 3.5896 14.7449 2.8096 16.1066 2.27985C16.5259 4.12585 17.4554 5.8191 18.7911 7.1646C20.1334 8.50035 21.8234 9.42985 23.6694 9.8491C23.1591 11.1491 22.4246 12.3451 21.4984 13.3916C19.8766 12.8164 18.0924 12.9236 16.5519 13.6939C15.0114 14.4641 13.8544 15.8259 13.3409 17.4671C11.8556 17.6946 10.3509 17.7889 8.84612 17.7499ZM19.3989 24.8706C16.3601 24.8706 13.8966 22.4071 13.8966 19.3684C13.8966 16.3296 16.3601 13.8661 19.3989 13.8661C22.4376 13.8661 24.9011 16.3296 24.9011 19.3684C24.8946 22.4071 22.4344 24.8674 19.3989 24.8706Z" fill="#203686"/>
<path d="M22.8504 16.8886L22.4344 17.1291L22.4831 16.3946C22.4896 16.2841 22.4539 16.1736 22.3791 16.0891C22.3044 16.0046 22.2004 15.9526 22.0899 15.9461C21.9761 15.9364 21.8656 15.9754 21.7811 16.0501C21.6966 16.1249 21.6446 16.2289 21.6414 16.3426L21.5569 17.6394L19.8214 18.6404V16.6384L20.9036 15.9201C21.0304 15.8356 21.1019 15.6926 21.0921 15.5399C21.0824 15.3904 20.9914 15.2539 20.8581 15.1889C20.7216 15.1206 20.5624 15.1336 20.4356 15.2149L19.8246 15.6211V15.1434C19.8246 14.9094 19.6361 14.7209 19.4021 14.7209C19.1681 14.7209 18.9796 14.9094 18.9796 15.1434V15.6211L18.3621 15.2116C18.2354 15.1271 18.0761 15.1174 17.9396 15.1856C17.8031 15.2539 17.7154 15.3871 17.7056 15.5366C17.6959 15.6861 17.7674 15.8324 17.8941 15.9169L18.9764 16.6384V18.6404L17.2409 17.6394L17.1564 16.3426C17.1499 16.2289 17.1011 16.1249 17.0134 16.0501C16.9289 15.9754 16.8184 15.9396 16.7046 15.9461C16.5941 15.9526 16.4869 16.0046 16.4154 16.0891C16.3406 16.1736 16.3049 16.2841 16.3114 16.3946L16.3601 17.1291L15.9441 16.8886C15.8141 16.8106 15.6516 16.8106 15.5184 16.8854C15.3851 16.9601 15.3071 17.1031 15.3071 17.2559C15.3071 17.4086 15.3884 17.5484 15.5216 17.6231L15.9344 17.8636L15.2746 18.1886C15.0634 18.2926 14.9789 18.5461 15.0829 18.7574C15.1869 18.9686 15.4404 19.0531 15.6516 18.9491L16.8151 18.3706L18.5506 19.3716L16.8151 20.3726L15.6516 19.7974C15.4436 19.6966 15.1901 19.7811 15.0861 19.9891C14.9821 20.1971 15.0666 20.4506 15.2746 20.5546L15.9344 20.8796L15.5216 21.1201C15.3884 21.1949 15.3071 21.3346 15.3071 21.4874C15.3071 21.6401 15.3884 21.7799 15.5184 21.8546C15.6516 21.9294 15.8109 21.9294 15.9441 21.8514L16.3601 21.6109L16.3114 22.3454C16.3049 22.4559 16.3406 22.5664 16.4154 22.6509C16.4901 22.7354 16.5941 22.7874 16.7046 22.7939H16.7306C16.9549 22.7939 17.1401 22.6216 17.1531 22.3974L17.2376 21.1006L18.9699 20.0996V22.1016L17.8876 22.8199C17.6926 22.9499 17.6406 23.2131 17.7706 23.4081C17.9006 23.6031 18.1639 23.6551 18.3589 23.5251L18.9699 23.1189V23.6031C18.9699 23.8371 19.1584 24.0256 19.3924 24.0256C19.6264 24.0256 19.8149 23.8371 19.8149 23.6031V23.1254L20.4259 23.5349C20.6209 23.6649 20.8841 23.6129 21.0141 23.4179C21.1441 23.2229 21.0921 22.9596 20.8971 22.8296L19.8149 22.1081V20.1061L21.5504 21.1071L21.6349 22.4039C21.6479 22.6281 21.8331 22.8004 22.0574 22.8004H22.0834C22.1939 22.7939 22.3011 22.7418 22.3726 22.6574C22.4441 22.5729 22.4831 22.4624 22.4766 22.3519L22.4279 21.6174L22.8439 21.8579C22.9739 21.9359 23.1364 21.9359 23.2696 21.8611C23.4029 21.7864 23.4809 21.6466 23.4809 21.4939C23.4809 21.3411 23.3996 21.2014 23.2664 21.1266L22.8536 20.8861L23.5134 20.5611C23.7214 20.4571 23.8059 20.2036 23.7019 19.9956C23.5979 19.7876 23.3476 19.6999 23.1364 19.8039L21.9729 20.3791L20.2374 19.3781L21.9729 18.3771L23.1364 18.9556C23.3444 19.0564 23.5979 18.9719 23.7019 18.7639C23.8059 18.5559 23.7214 18.3024 23.5134 18.1984L22.8536 17.8734L23.2664 17.6329C23.3996 17.5581 23.4809 17.4184 23.4809 17.2656C23.4809 17.1129 23.3996 16.9731 23.2696 16.8984C23.1429 16.8139 22.9836 16.8139 22.8504 16.8886Z" fill="#203686"/>
</svg>

<svg width="26" height="26" fill="none" xmlns="http://www.w3.org/2000/svg"><path d="M20.644 3.395a.508.508 0 10-.719-.719.508.508 0 00.719.719zm-4.307 6.168a.422.422 0 00.3-.721c-1.778-1.778-.833-2.873-.716-2.994a.427.427 0 00-.006-.594.427.427 0 00-.595-.004c-.016.017-1.706 1.765.718 4.19a.429.429 0 00.3.123zm-1.495 1.073c-1.927-1.928-1.358-3.8-1.332-3.878a.43.43 0 00-.085-.416.426.426 0 00-.403-.133c-.15.03-.27.14-.315.283-.032.097-.773 2.428 1.537 4.742a.422.422 0 00.598 0 .428.428 0 000-.598z" fill="#203686"/><path d="M22.317 13.74c3.536-4.148 3.442-9.715 3.221-11.977A1.521 1.521 0 0024.186.418C22.223.226 17.738.132 13.874 2.442c-1.567-.422-4.687-.598-8.635 2.659a.937.937 0 00-.335.666.935.935 0 00.273.705l3.152 3.156a19.695 19.695 0 00-.841 4.157 4.462 4.462 0 00-3.296 1.16L.601 18.533a.422.422 0 000 .598c.1.1 2.255 2.22 4.693 1.768-.452 2.438 1.667 4.596 1.768 4.693a.422.422 0 00.598 0l3.591-3.591c1.024-1.024 1.212-2.431 1.154-3.559.25-.03.494-.058.738-.094a6.342 6.342 0 004.589 7.14 6.34 6.34 0 004.585-11.749zm1.791-12.477a.67.67 0 01.588.585 18.229 18.229 0 01-.728 7.198 9.238 9.238 0 01-4.576-2.48 9.283 9.283 0 01-2.483-4.575 18.222 18.222 0 017.2-.728zM5.778 5.88c-.02-.016-.026-.042-.026-.068a.07.07 0 01.026-.056c3.071-2.531 5.548-2.84 7.095-2.648-.36.263-.705.546-1.034.845a12.786 12.786 0 00-3.198 4.79L5.778 5.881zm4.875 15.525L7.38 24.68c-.575-.705-1.774-2.464-1.092-4.176l.654-.654a.432.432 0 00.117-.412.424.424 0 00-.715-.185l-.654.653c-1.712.682-3.47-.517-4.176-1.092l3.276-3.27a3.618 3.618 0 012.626-.91c-.052.8-.075 1.628-.055 2.493.03.8.67 1.44 1.469 1.475a26.887 26.887 0 002.733-.072c.042.934-.11 2.078-.91 2.877zM8.846 17.75a.676.676 0 01-.64-.644c-.114-5.622 1.3-9.837 4.209-12.532a11.859 11.859 0 013.692-2.294 10.114 10.114 0 002.684 4.885 10.078 10.078 0 004.878 2.684 11.905 11.905 0 01-2.17 3.543 6.326 6.326 0 00-8.158 4.075c-1.485.228-2.99.322-4.495.283zM19.4 24.87a5.502 5.502 0 115.502-5.502 5.51 5.51 0 01-5.502 5.503z" fill="#203686"/><path d="M22.85 16.889l-.416.24.05-.734a.423.423 0 00-.703-.345.406.406 0 00-.14.293l-.084 1.296-1.736 1.001v-2.002l1.083-.718a.422.422 0 00-.046-.731.427.427 0 00-.422.026l-.611.406v-.478a.422.422 0 10-.845 0v.478l-.618-.41a.422.422 0 10-.468.705l1.082.722v2.002l-1.735-1-.085-1.297a.41.41 0 00-.143-.293.426.426 0 00-.598.04.423.423 0 00-.104.305l.05.734-.417-.24a.421.421 0 00-.637.367.42.42 0 00.215.367l.412.24-.66.326a.423.423 0 00-.191.568.423.423 0 00.569.192l1.163-.578 1.736 1-1.736 1.002-1.163-.576a.426.426 0 00-.566.192.422.422 0 00.189.566l.66.325-.413.24a.423.423 0 10.423.731l.415-.24-.049.734a.423.423 0 00.394.449h.026a.42.42 0 00.422-.397l.085-1.296L18.97 20.1v2.002l-1.082.718a.424.424 0 10.47.705l.612-.406v.484a.422.422 0 10.845 0v-.478l.61.41a.424.424 0 10.472-.705l-1.082-.722v-2.002l1.735 1.001.085 1.297a.421.421 0 00.422.396h.026a.415.415 0 00.29-.143.438.438 0 00.104-.305l-.05-.735.417.24c.13.079.292.079.426.004a.416.416 0 00.21-.367.42.42 0 00-.214-.367l-.412-.24.66-.326a.422.422 0 00-.377-.757l-1.164.575-1.736-1 1.736-1.002 1.163.579c.208.1.462.016.566-.192a.422.422 0 00-.189-.566l-.66-.325.413-.24a.423.423 0 00.003-.735.398.398 0 00-.419-.01z" fill="#203686"/></svg>
